svg/remove-filter.svg

<?xml version="1.0" encoding="UTF-8"?>
<svg xmlns="http://www.w3.org/2000/svg" xmlns:xlink="http://www.w3.org/1999/xlink" width="32" height="32" viewBox="0 0 32 32">
<path fill-rule="nonzero" fill="rgb(0%, 0%, 0%)" fill-opacity="1" d="M 0.640625 0 C 0.289062 0 0 0.289062 0 0.640625 L 0 2.558594 C 0 2.722656 0.0664062 2.878906 0.179688 3 L 9.398438 12.800781 L 18.761719 12.800781 L 27.980469 3 C 28.003906 2.976562 28.023438 2.945312 28.039062 2.921875 C 28.066406 2.878906 28.101562 2.84375 28.121094 2.800781 C 28.136719 2.753906 28.132812 2.691406 28.140625 2.640625 C 28.144531 2.609375 28.160156 2.59375 28.160156 2.558594 L 28.160156 0.640625 C 28.160156 0.46875 28.09375 0.308594 27.972656 0.1875 C 27.851562 0.0664062 27.691406 0 27.519531 0 Z M 10.238281 14.078125 L 10.238281 24.960938 C 10.238281 25.183594 10.367188 25.386719 10.558594 25.5 L 16.960938 29.339844 C 17.054688 29.402344 17.167969 29.4375 17.28125 29.441406 C 17.394531 29.441406 17.503906 29.414062 17.601562 29.359375 C 17.800781 29.246094 17.921875 29.03125 17.921875 28.800781 L 17.921875 14.078125 Z M 21.058594 20.460938 C 21.03125 20.464844 21.003906 20.472656 20.980469 20.480469 C 20.742188 20.523438 20.546875 20.695312 20.480469 20.929688 C 20.414062 21.164062 20.484375 21.414062 20.660156 21.578125 L 25.320312 26.238281 L 20.660156 30.898438 C 20.472656 31.085938 20.417969 31.363281 20.519531 31.605469 C 20.617188 31.851562 20.855469 32.011719 21.117188 32.011719 C 21.289062 32.011719 21.457031 31.941406 21.578125 31.820312 L 26.238281 27.160156 L 30.898438 31.820312 C 31.15625 32.050781 31.550781 32.039062 31.792969 31.792969 C 32.039062 31.550781 32.050781 31.15625 31.820312 30.898438 L 27.160156 26.238281 L 31.820312 21.578125 C 32.027344 21.386719 32.082031 21.082031 31.957031 20.828125 C 31.835938 20.574219 31.558594 20.433594 31.28125 20.480469 C 31.136719 20.496094 31 20.558594 30.898438 20.660156 L 26.238281 25.320312 L 21.578125 20.660156 C 21.445312 20.515625 21.253906 20.441406 21.058594 20.460938 M 21.058594 20.460938 "/>
</svg>

<svg role="img" viewBox="0 0 32 32" xmlns="http://www.w3.org/2000/svg"><path d="M.64 0C.29 0 0 .29 0 .64v1.92c0 .164.066.32.18.441l9.218 9.8h9.364L27.98 3c.024-.023.043-.055.06-.078.026-.043.062-.078.081-.121.016-.047.012-.11.02-.16.004-.032.02-.047.02-.082V.64a.64.64 0 0 0-.188-.453A.64.64 0 0 0 27.52 0Zm9.598 14.078v10.883c0 .223.13.426.32.539l6.403 3.84a.6.6 0 0 0 .32.101.65.65 0 0 0 .32-.082c.2-.113.32-.328.32-.558V14.078Zm10.82 6.383-.078.02a.63.63 0 0 0-.5.449.65.65 0 0 0 .18.648l4.66 4.66-4.66 4.66a.64.64 0 0 0-.14.707.644.644 0 0 0 1.058.215l4.66-4.66 4.66 4.66a.65.65 0 0 0 .895-.027.65.65 0 0 0 .027-.895l-4.66-4.66 4.66-4.66a.64.64 0 0 0 .137-.75.63.63 0 0 0-.676-.348.64.64 0 0 0-.383.18l-4.66 4.66-4.66-4.66a.62.62 0 0 0-.52-.2m0 0" fill="rgb(0%, 0%, 0%)"/></svg>
